music-note-whole-dotted.svg

<svg fill="currentColor" viewBox="0 0 24 24"><path d="M10 15a2 2 0 1 1-2 2 2 2 0 0 1 2-2m0-2a4 4 0 1 0 4 4 4 4 0 0 0-4-4m6.5 4a1.5 1.5 0 1 1-1.5 1.5 1.5 1.5 0 0 1 1.5-1.5"/></svg>

<svg  viewBox="0 0 24 24" fill="currentColor"><path  d="M10 15A2 2 0 1 1 8 17A2 2 0 0 1 10 15M10 13A4 4 0 1 0 14 17A4 4 0 0 0 10 13M16.5 17A1.5 1.5 0 1 1 15 18.5A1.5 1.5 0 0 1 16.5 17Z"/></svg>
